X:1
T:Title
%%score { ( 1 4 ) | ( 2 3 ) }
L:1/8
M:4/4
K:D
V:1 treble nm="Grand Piano"
V:4 treble 
V:2 bass 
V:3 bass 
V:1
 z4 z2[Q:1/4=100] A2 | A2 F2 B3 F | A2 G4 G2 | [CG]2 [D^G]2 [EA]3 [CE] | G2 F4 F2 | %5
 F2 B2 [Fd]3 [Fd] | [Fd]2 [DF]4 [B,D^G]2 | [CEA]2 [A,CA]2 [A,DA]3 [A,EA] | [A,FA]6 A2 | %9
 A2 F2 B3 F |[M:3/4] A2 G4 |[M:1/4] G2 |[M:4/4] [CG]2 [D^G]2 [EA]3 [CE] | G2 F4 [DFA]2 | %14
 [Fd]2 [DF]2 [Dc]3 [DB] | A2 z2 B,2 [B,DG]2 | [DF]2 [A,DF]2[K:bass] [G,CE]3 [F,D] | %17
 A2- [DA-]2 [EA]2 [CGA]2 | [DFd]2 [A,DF]2 [Dc]3 [DB] | A2 z2 B,2 [B,DG]2 | %20
 [A,DF]2[K:bass] [F,A,D]2 [G,CE]3 [F,D][Q:1/4=99][Q:1/4=97][Q:1/4=96][Q:1/4=94][Q:1/4=93][Q:1/4=91][Q:1/4=90][Q:1/4=88][Q:1/4=87][Q:1/4=85][Q:1/4=84][Q:1/4=82][Q:1/4=81][Q:1/4=79] | %21
[M:3/4] [F,D]6[Q:1/4=78][Q:1/4=76] |] %22
V:2
 z4 z2 [D,F,D]2 | [D,F,D]2 [D,A,D]2 [D,F,D]3 [^D,B,] | [E,B,F]2 [E,B,E]4 [E,B,D]2 | %3
 [A,,A,]2 [B,,E,]2 [C,A,]3 [A,,A,] | B,2 z2 z4 | [D,A,D]2 [D,F,D]2 [B,,B,]3 [B,,B,] | %6
 [B,,B,]2 [B,,B,]4 E,2 | A,,2 A,,2 B,,3 C, | D,6 [D,F,D]2 | [D,F,D]2 [D,A,D]2 [D,F,D]3 [^D,B,] | %10
[M:3/4] [E,B,F]2 [E,B,E]4 |[M:1/4] [E,B,D]2 |[M:4/4] [A,,A,]2 [B,,E,]2 [C,A,]3 [A,,A,] | %13
 B,2 z2 z4 | [D,A,]2 [D,A,]2 [G,,A,]3 [B,,G,] | [D,F,D]2 [F,A,=C]2 G,2 E,2 | A,2 A,,2 A,,3 A,, | %17
 z2 A,4 z2 | D,2 D,2 [G,,A,]3 [B,,G,] | [D,F,D]2 [F,A,=C]2 G,2 E,2 | A,,2 A,,2 A,,3 D, | %21
[M:3/4] D,6 |] %22
V:3
 x8 | x8 | x8 | x8 | [D,D]2- [D,A,D]4 [D,A,D]2 | x8 | x8 | x8 | x8 | x8 |[M:3/4] x6 |[M:1/4] x2 | %12
[M:4/4] x8 | [D,D]2- [D,A,D]4 D,2 | x8 | x8 | x8 | [A,,E,]2 B,,2 C,2 E,2 | x8 | x8 | x8 | %21
[M:3/4] x6 |] %22
V:4
 x8 | x8 | x8 | x8 | x8 | x8 | x8 | x8 | x8 | x8 |[M:3/4] x6 |[M:1/4] x2 |[M:4/4] x8 | x8 | x8 | %15
 z2 D4 z2 | x4[K:bass] x4 | C2 z2 z4 | x8 | z2 D4 z2 | x2[K:bass] x6 |[M:3/4] x6 |] %22

